resources/svg/ms-powerpoint-o.svg

<svg width="15" height="15" viewBox="0 0 15 15" fill="none" xmlns="http://www.w3.org/2000/svg">
<path d="M1.75464 3.5C3.01958 1.68652 5.1212 0.5 7.49995 0.5C11.3659 0.5 14.4999 3.63401 14.4999 7.5C14.4999 11.366 11.3659 14.5 7.49995 14.5C5.1212 14.5 3.01958 13.3135 1.75464 11.5M2.5 10V8.5M2.5 8.5V5.5H5C5.82843 5.5 6.5 6.17157 6.5 7C6.5 7.82843 5.82843 8.5 5 8.5H2.5ZM1.5 3.5H7.5C8.05228 3.5 8.5 3.94772 8.5 4.5V10.5C8.5 11.0523 8.05228 11.5 7.5 11.5H1.5C0.947715 11.5 0.5 11.0523 0.5 10.5V4.5C0.5 3.94772 0.947715 3.5 1.5 3.5Z" stroke="black"/>
</svg>

<svg viewBox="0 0 15 15" fill="none" xmlns="http://www.w3.org/2000/svg" fill="currentColor"><path d="M1.755 3.5a7 7 0 110 8M2.5 10V8.5m0 0v-3H5a1.5 1.5 0 110 3H2.5zm-1-5h6a1 1 0 011 1v6a1 1 0 01-1 1h-6a1 1 0 01-1-1v-6a1 1 0 011-1z" stroke="currentColor"/></svg>
